X: 42
T: Missa N'as tu pas &mdash; Credo
C: Gaspar van Weerbeke
%%abc-version 2.0
%%abcx-abcm2ps-target-version 5.9.1 (29 Sep 2008)
%%abc-creator hum2abc beta
%%abcx-conversion-date 2022/03/06 13:05:56
%%abc-copyright Copyright 2016, Kolb, Paul
%%abc-edited-by Zybina, Karina
%%humdrum-veritas 2098114815
%%humdrum-veritas-data 1657090844
%%linebreak <none>
%%barnumbers 0
L: 1/4
M: 2/2
N: Derived from Gas0203c-Missa_Nas_tu_pas-Credo.krn
%%staves [1 2 3 4]
V: 1 clef=treble
V: 2 clef=treble-8
V: 3 clef=treble-8
V: 4 clef=bass
K: F
[V:1] F2FF | 
[V:2] F2FF | 
[V:3] z4 | 
[V:4] z4 | 
[V:1] ABc/B/A/G/ | 
[V:2] FGA3/B/ | 
[V:3] z4 | 
[V:4] z4 | 
[V:1] Accc | 
[V:2] c/B/A/G/Ac | 
[V:3] z4 | 
[V:4] z4 | 
[V:1] AGE3/F/ | 
[V:2] ccc2 | 
[V:3] z4 | 
[V:4] z4 | 
[V:1] GA/G/ G/F/A | 
[V:2] ccBA | 
[V:3] z4 | 
[V:4] z4 | 
[V:1] z4 | 
[V:2] z4 | 
[V:3] FFAA | 
[V:4] F,,F,,F,,3/F,,/ | 
[V:1] z4 | 
[V:2] z4 | 
[V:3] c/B/A/G<AG/ | 
[V:4] A,,>B,,C,C, | 
[V:1] z4 | 
[V:2] z4 | 
[V:3] Ec>cc | 
[V:4] C,/B,,/A,,/G,,/A,,2 | 
[V:1] z4 | 
[V:2] z4 | 
[V:3] AGAG | 
[V:4] C,C,C,C, | 
[V:1] z4 | 
[V:2] z4 | 
[V:3] E>FGA | 
[V:4] C,2B,,A,, | 
[V:1] EEEF | 
[V:2] AAAA | 
[V:3] z4 | 
[V:4] z4 | 
[V:1] G3/F//E// D/C/F | 
[V:2] G>A B/c/d- | 
[V:3] z4 | 
[V:4] z4 | 
[V:1] GED2 | 
[V:2] dc2=B | 
[V:3] z4 | 
[V:4] z4 | 
[V:1] Cccc | 
[V:2] ceee | 
[V:3] zGGG | 
[V:4] zC,C,C, | 
[V:1] c>BAc | 
[V:2] e2dc | 
[V:3] E2FE | 
[V:4] C,2D,A,, | 
[V:1] c2BA | 
[V:2] A/B/c/d/ef- | 
[V:3] E>FGA | 
[V:4] A,,2G,,F,, | 
[V:1] z4 | 
[V:2] fAAB | 
[V:3] z4 | 
[V:4] F,F,D,2 | 
[V:1] z4 | 
[V:2] AG/F/ E/D/G- | 
[V:3] z4 | 
[V:4] C,3/B,,//A,,// G,,/F,,/B,,- | 
[V:1] z4 | 
[V:2] GF2E | 
[V:3] z4 | 
[V:4] B,,/C,/A,,G,,2 | 
[V:1] zAAA | 
[V:2] F2z2 | 
[V:3] zccc | 
[V:4] F,,2z2 | 
[V:1] B/A/G/F/GA- | 
[V:2] z4 | 
[V:3] dB2A/G/ | 
[V:4] z4 | 
[V:1] AG2^F | 
[V:2] z4 | 
[V:3] FGA2 | 
[V:4] z4 | 
[V:1] GAAA | 
[V:2] zfff- | 
[V:3] Gccc | 
[V:4] zF,F,F, | 
[V:1] B/A/G/F/ E/D/G- | 
[V:2] f/f/ded | 
[V:3] d/c/B/A/GB | 
[V:4] B,,B,,C,G,, | 
[V:1] GF2E | 
[V:2] c4 | 
[V:3] cAG2 | 
[V:4] A,,F,,C,2 | 
[V:1] FCEF | 
[V:2] A2cc | 
[V:3] FAAA | 
[V:4] F,,2z2 | 
[V:1] G/F/E/D/EG | 
[V:2] dez2 | 
[V:3] Gc2c | 
[V:4] z2zC, | 
[V:1] GGG2 | 
[V:2] z4 | 
[V:3] ccG3/A/ | 
[V:4] C,C,E,2 | 
[V:1] FEzC | 
[V:2] z4 | 
[V:3] =BcAA | 
[V:4] D,C,F,2 | 
[V:1] EFG3/F/ | 
[V:2] z4 | 
[V:3] AAG3/A/ | 
[V:4] C,D,E,G,- | 
[V:1] D/E/F/G/A2 | 
[V:2] z4 | 
[V:3] B/c<dc/A | 
[V:4] G,F,/E,/D,F, | 
[V:1] =BcF3/D/ | 
[V:2] z4 | 
[V:3] Gc2=B | 
[V:4] E,C,D,2 | 
[V:1] E2z2 | 
[V:2] z4 | 
[V:3] c2z2 | 
[V:4] C,2C,C, | 
[V:1] z4 | 
[V:2] ccc/B/A/G/ | 
[V:3] z4 | 
[V:4] C,/B,,/A,,/G,,/A,,D, | 
[V:1] z4 | 
[V:2] F/E/A2G | 
[V:3] z4 | 
[V:4] A,,>C,B,,2 | 
[V:1] zccc | 
[V:2] AFFF | 
[V:3] z4 | 
[V:4] A,,2z2 | 
[V:1] c/B/A/G/c2 | 
[V:2] Ff2e | 
[V:3] z4 | 
[V:4] z4 | 
[V:1] BA2G | 
[V:2] dcB2 | 
[V:3] z4 | 
[V:4] z4 | 
[V:1] AAAA | 
[V:2] AAFc | 
[V:3] zccc | 
[V:4] zF,,F,,F,, | 
[V:1] B/A/G/F<EF/ | 
[V:2] BBG2- | 
[V:3] ddc2- | 
[V:4] B,,B,,C,3/D,/ | 
[V:1] GF2E | 
[V:2] Gc2c | 
[V:3] cAG2 | 
[V:4] E,F,C,2 | 
[V:1] F2z2 | 
[V:2] A2E2 | 
[V:3] F2z2 | 
[V:4] F,,2zA,, | 
[V:1] z4 | 
[V:2] EFEG- | 
[V:3] z4 | 
[V:4] A,,A,,G,,3/A,,/ | 
[V:1] z4 | 
[V:2] G/F/E/D<GF//E// | 
[V:3] z4 | 
[V:4] B,,G,,2C,- | 
[V:1] z2zE | 
[V:2] DDC2 | 
[V:3] z2zA | 
[V:4] C,=B,,C,2 | 
[V:1] EFEG- | 
[V:2] z4 | 
[V:3] AAG3/A/ | 
[V:4] z4 | 
[V:1] G/F/E/D/GE | 
[V:2] z4 | 
[V:3] BG2c- | 
[V:4] z4 | 
[V:1] D2Cc | 
[V:2] z2zc | 
[V:3] c=Bc2 | 
[V:4] z2C,3/B,,/ | 
[V:1] c>B A/G/F | 
[V:2] efcd | 
[V:3] z2zA | 
[V:4] A,,/G,,/F,,F,3/E,//D,// | 
[V:1] Ec>BA | 
[V:2] e2fc- | 
[V:3] c>B A/G/F | 
[V:4] C,/B,,/A,,/G,,/F,,F, | 
[V:1] GF2E | 
[V:2] c/A/Bc2 | 
[V:3] EFG2 | 
[V:4] C,D,C,2 | 
[V:1] !fermata!F4 | 
[V:2] !fermata!c4 | 
[V:3] !fermata!F4 | 
[V:4] !fermata!F,,4 | 
[V:1] A4 | 
[V:2] f4 | 
[V:3] c4 | 
[V:4] F,4 | 
[V:1] A2AB- | 
[V:2] f2f2 | 
[V:3] c2d2 | 
[V:4] F,2D,2 | 
[V:1] B/A/G/F/G2 | 
[V:2] f/e/d/c<dc/ | 
[V:3] d2B2 | 
[V:4] B,,2B,,2 | 
[V:1] A4 | 
[V:2] Af2e/d/ | 
[V:3] c4 | 
[V:4] F,,4 | 
[V:1] A2A2 | 
[V:2] ccA3/G/ | 
[V:3] A2cc | 
[V:4] F,,2F,,/G,,/A,,/B,,/ | 
[V:1] GA>GE | 
[V:2] EF/G/ A/B/c- | 
[V:3] c>BAG- | 
[V:4] C,F,,F,C, | 
[V:1] F2E2 | 
[V:2] c=Bc2 | 
[V:3] GFG2 | 
[V:4] D,2C,2 | 
[V:1] A2A2 | 
[V:2] A>FFf | 
[V:3] F2A2 | 
[V:4] D,2F,2 | 
[V:1] G2FG- | 
[V:2] ed2=B | 
[V:3] B2AG- | 
[V:4] G,2D,E, | 
[V:1] GED2 | 
[V:2] cG/A/BG | 
[V:3] Gc2=B | 
[V:4] C,2G,2 | 
[V:1] C4 | 
[V:2] G4 | 
[V:3] c4 | 
[V:4] C,4 | 
[V:1] D2G2 | 
[V:2] z2d2 | 
[V:3] B2B3/A/ | 
[V:4] G,2G,3/F,/ | 
[V:1] GA2G/F/ | 
[V:2] efed | 
[V:3] GFcB/A/ | 
[V:4] E,D,C,F, | 
[V:1] E/D/F2E | 
[V:2] cBc2 | 
[V:3] GFG2 | 
[V:4] C,D,C,2 | 
[V:1] F4 ||  
[V:2] c4 ||  
[V:3] F4 ||  
[V:4] F,,4 ||  
[V:1] [M:2/2]FFFC | 
[V:2] [M:2/2]z2FF | 
[V:3] [M:2/2]z4 | 
[V:4] [M:2/2]z4 | 
[V:1] FGAB- | 
[V:2] FCFG | 
[V:3] z4 | 
[V:4] z4 | 
[V:1] BA2G | 
[V:2] AcB2 | 
[V:3] z4 | 
[V:4] z4 | 
[V:1] A2z2 | 
[V:2] A2z2 | 
[V:3] zAAA | 
[V:4] zA,,C,C, | 
[V:1] z4 | 
[V:2] z4 | 
[V:3] G/F/E/D/CD- | 
[V:4] C,2A,,B,,- | 
[V:1] z4 | 
[V:2] z4 | 
[V:3] D/E/F2E | 
[V:4] B,,/A,,/F,,G,,2 | 
[V:1] z2FF | 
[V:2] z4 | 
[V:3] F2z2 | 
[V:4] F,,4 | 
[V:1] FCFG | 
[V:2] FFFC | 
[V:3] z4 | 
[V:4] z4 | 
[V:1] AABA | 
[V:2] FFGA | 
[V:3] z4 | 
[V:4] z4 | 
[V:1] GFBA/ A/ | 
[V:2] BAGF | 
[V:3] z4 | 
[V:4] z4 | 
[V:1] GFGA- | 
[V:2] BA/ A/GF | 
[V:3] z2EF | 
[V:4] z4 | 
[V:1] A/G/FE2 | 
[V:2] ABc2 | 
[V:3] DDC/D/E/F/ | 
[V:4] z2C,A,, | 
[V:1] z4 | 
[V:2] B2GA- | 
[V:3] G>A B/c/d- | 
[V:4] G,,G,/F,/ E,/C,/F,- | 
[V:1] z4 | 
[V:2] AG2F | 
[V:3] dc2=B | 
[V:4] F,E,D,2 | 
[V:1] EEC/D/E/F/ | 
[V:2] G2A/B/c/d/ | 
[V:3] c2z2 | 
[V:4] C,2z2 | 
[V:1] GAGc- | 
[V:2] efec | 
[V:3] z4 | 
[V:4] z4 | 
[V:1] c=Bc2 | 
[V:2] d2c2 | 
[V:3] z2zc | 
[V:4] z4 | 
[V:1] z4 | 
[V:2] z4 | 
[V:3] GGBB | 
[V:4] zC,G,,G,, | 
[V:1] z4 | 
[V:2] z4 | 
[V:3] FA2G/F/ | 
[V:4] B,,A,,F,,C,- | 
[V:1] z4 | 
[V:2] zcBB | 
[V:3] EF2E | 
[V:4] C,B,,/A,,/G,,2 | 
[V:1] zFAB | 
[V:2] A/G/F/E/Dd | 
[V:3] FFFG | 
[V:4] F,,2z2 | 
[V:1] c/B/A/G/Ac | 
[V:2] c>BAf | 
[V:3] A>B c/B/A/G/ | 
[V:4] F,2F,F, | 
[V:1] ccB3/G/ | 
[V:2] cf2e | 
[V:3] AABB | 
[V:4] F,A,G,G, | 
[V:1] A2z2 | 
[V:2] f2z2 | 
[V:3] cFAB | 
[V:4] F,F,F,D, | 
[V:1] z4 | 
[V:2] z4 | 
[V:3] c/B/A/G/Ac | 
[V:4] C,2F,F, | 
[V:1] z4 | 
[V:2] z4 | 
[V:3] ccBA | 
[V:4] F,2G,A, | 
[V:1] z4 | 
[V:2] AAG/A/B/c/ | 
[V:3] z4 | 
[V:4] F,F,E,G,- | 
[V:1] z4 | 
[V:2] dc2=B | 
[V:3] z4 | 
[V:4] G,E,D,2 | 
[V:1] z2c2 | 
[V:2] c2zc | 
[V:3] z4 | 
[V:4] C,2z2 | 
[V:1] ccAc | 
[V:2] fefe | 
[V:3] z4 | 
[V:4] z4 | 
[V:1] ccBA | 
[V:2] fcd/e/f | 
[V:3] z4 | 
[V:4] z4 | 
[V:1] z4 | 
[V:2] ccfe | 
[V:3] AAAA | 
[V:4] F,F,D,C, | 
[V:1] z4 | 
[V:2] d2z2 | 
[V:3] B/A/G/F/BA- | 
[V:4] D,/C,/B,,/A,,/G,,D, | 
[V:1] z4 | 
[V:2] z4 | 
[V:3] AG2^F | 
[V:4] C,B,,A,,2 | 
[V:1] z4 | 
[V:2] z4 | 
[V:3] GBAG | 
[V:4] G,,D,C,B,, | 
[V:1] z4 | 
[V:2] z4 | 
[V:3] A/G/F/E/ D/C/G- | 
[V:4] C,D,B,,3/G,,/ | 
[V:1] z4 | 
[V:2] z4 | 
[V:3] G/F/F2E | 
[V:4] A,,B,,G,,2 | 
[V:1] zAAA | 
[V:2] f2ff | 
[V:3] Fccc | 
[V:4] F,,F,F,F, | 
[V:1] B/A/G/F/BA- | 
[V:2] d2df | 
[V:3] dB>AF | 
[V:4] B,,2G,,D, | 
[V:1] AG2^F | 
[V:2] _ed2d | 
[V:3] GBA2 | 
[V:4] _E,G,D,2 | 
[V:1] GBAG | 
[V:2] Bf2B | 
[V:3] GdcB | 
[V:4] _E,D,F,G, | 
[V:1] A/G/F/E/ D/C/G- | 
[V:2] A2B_e- | 
[V:3] cdB2 | 
[V:4] F,D,G,2 | 
[V:1] GF2E | 
[V:2] e/d/c3 | 
[V:3] cAG2 | 
[V:4] C,F,C,2 | 
[V:1] F2z2 | 
[V:2] AFAA | 
[V:3] F2z2 | 
[V:4] F,,2zF,, | 
[V:1] z4 | 
[V:2] c3/B//A//GB- | 
[V:3] z4 | 
[V:4] A,,A,,C,B,, | 
[V:1] z4 | 
[V:2] BA2G | 
[V:3] z4 | 
[V:4] G,,A,,B,,2 | 
[V:1] zFAA | 
[V:2] A2z2 | 
[V:3] z2zF | 
[V:4] A,,2z2 | 
[V:1] c3/B//A// G/F/c | 
[V:2] z4 | 
[V:3] AAc3/B/ | 
[V:4] z4 | 
[V:1] BA2G | 
[V:2] z4 | 
[V:3] GAB2 | 
[V:4] z4 | 
[V:1] A2z2 | 
[V:2] zAc3/B/ | 
[V:3] A2z2 | 
[V:4] z2zA,, | 
[V:1] z4 | 
[V:2] AG2F- | 
[V:3] z4 | 
[V:4] C,C,B,,A,, | 
[V:1] z4 | 
[V:2] FEF2 | 
[V:3] z4 | 
[V:4] G,,2F,,2 | 
[V:1] A>AAA | 
[V:2] f>fff | 
[V:3] c>ccc | 
[V:4] F,,F,,F,F, | 
[V:1] A2zA- | 
[V:2] f2zf- | 
[V:3] c2zc- | 
[V:4] F,2zF,- | 
[V:1] AGA2 | 
[V:2] fef2 | 
[V:3] ccc2 | 
[V:4] F,C,F,2 | 
[V:1] G4 | 
[V:2] e2zc | 
[V:3] c4 | 
[V:4] C,4 | 
[V:1] zCDF | 
[V:2] defd | 
[V:3] z4 | 
[V:4] z4 | 
[V:1] EEDG- | 
[V:2] c2B3/A/ | 
[V:3] z4 | 
[V:4] z4 | 
[V:1] GED2 | 
[V:2] Gc2=B | 
[V:3] z4 | 
[V:4] z4 | 
[V:1] CCFE | 
[V:2] c2z2 | 
[V:3] z2zC | 
[V:4] z4 | 
[V:1] FGAB- | 
[V:2] z4 | 
[V:3] FEFG | 
[V:4] z4 | 
[V:1] BA2G | 
[V:2] z4 | 
[V:3] AcBB | 
[V:4] z4 | 
[V:1] A2zd | 
[V:2] zdcB | 
[V:3] A2z2 | 
[V:4] z4 | 
[V:1] cBAd | 
[V:2] Adc/ A/B | 
[V:3] z4 | 
[V:4] z4 | 
[V:1] c/ A/BAz | 
[V:2] Azz2 | 
[V:3] zdcB | 
[V:4] z2zD, | 
[V:1] z4 | 
[V:2] z4 | 
[V:3] Adc/A/B | 
[V:4] C,B,,A,,D, | 
[V:1] z4 | 
[V:2] z4 | 
[V:3] AGc3/B/ | 
[V:4] C,/A,,/B,,A,,3/G,,/ | 
[V:1] z4 | 
[V:2] z4 | 
[V:3] A/G/BAG- | 
[V:4] C,D,C,3/B,,/ | 
[V:1] z4 | 
[V:2] z4 | 
[V:3] GF2E | 
[V:4] C,A,,G,,2 | 
[V:1] [M:3/2]z6 | 
[V:2] [M:3/2]z2z2F2 | 
[V:3] [M:3/2]F4z2 | 
[V:4] [M:3/2]F,,4z2 | 
[V:1] z6 | 
[V:2] A4B2 | 
[V:3] z6 | 
[V:4] F,4G,2 | 
[V:1] z2z2F2 | 
[V:2] cBAGA2 | 
[V:3] z6 | 
[V:4] A,G,F,E,F,2 | 
[V:1] A4B2 | 
[V:2] f2>e2d2 | 
[V:3] z6 | 
[V:4] D,2>C,2B,,2 | 
[V:1] cBAGA2 | 
[V:2] c2f2f2 | 
[V:3] z6 | 
[V:4] A,,2F,,2z2 | 
[V:1] c2>c2c2 | 
[V:2] edcBA2 | 
[V:3] z6 | 
[V:4] z6 | 
[V:1] c2B2A2 | 
[V:2] c2d>ef2 | 
[V:3] z6 | 
[V:4] A,2G,2F,2 | 
[V:1] z6 | 
[V:2] z6 | 
[V:3] A4A2 | 
[V:4] D,2F,4 | 
[V:1] z6 | 
[V:2] z6 | 
[V:3] GABcd2 | 
[V:4] E,2G,3F, | 
[V:1] z6 | 
[V:2] z6 | 
[V:3] c4=B2 | 
[V:4] E,2D,4 | 
[V:1] z6 | 
[V:2] c2c2A2 | 
[V:3] c6 | 
[V:4] C,4F,2 | 
[V:1] c2c2A2 | 
[V:2] A2c2c2 | 
[V:3] z2z2c2 | 
[V:4] F,2F,2F,2 | 
[V:1] c2c2c2 | 
[V:2] F4AB | 
[V:3] c2A2c2 | 
[V:4] F,2F,2z2 | 
[V:1] c2B2A2 | 
[V:2] cde2f2 | 
[V:3] A2G2F2 | 
[V:4] z6 | 
[V:1] B2A2G2 | 
[V:2] d2c2z2 | 
[V:3] G2A2B2 | 
[V:4] z2F,2G,2 | 
[V:1] AGFEDC | 
[V:2] d2f2g2 | 
[V:3] A2dcBA | 
[V:4] D,4G,,2- | 
[V:1] G2>F2F2 | 
[V:2] d4d2 | 
[V:3] G2B2A2 | 
[V:4] G,,2G,2D,2 | 
[V:1] B2A2G2 | 
[V:2] d2f2g2 | 
[V:3] G2F2B2 | 
[V:4] G,,2D,2_E,2 | 
[V:1] B2AG2F | 
[V:2] f2_e_e2d | 
[V:3] d2cB2A | 
[V:4] B,,2C,_E,2F, | 
[V:1] F4E2 | 
[V:2] B2c4 | 
[V:3] F2G4 | 
[V:4] D,2C,4 | 
[V:1] F4 |]  
[V:2] c4 |]  
[V:3] F4 |]  
[V:4] F,,4 |]  


